X:523
T:Draper's Maggot. (p)1709.PLFD.523
M:3/4
L:1/4
Q:3/4=50
S:Playford, Dancing Master,13th Ed.,1709.
O:England
Z:Chris Partington
K:D
DD/E/F/G/ | AdA | BB/A/G | AA/G/F | GG/F/E | 
FF/E/D | F/G/AA, | D3 :||: dd/e/f/g/ | aa/g/f | 
gg/f/e | f2e | f/g/ag/f/ | e/f/gf/e/ | d/e/e2 | d3 :| 
